!!!!SEGMENT: pl-wnifc--6854-n--005_kozlowski-jozef--polonaise-in-f.krn
!!!cenid: 18xx:3970
!!!COM: Kozłowski, Józef
!!!COM-rismID: pe30003850
!!!CDT: 1757-1831
!!!CNT: Polish
!!!OTL: Polonaise in F
!!!PDT:
!!!AGN:
!!!YEC: Copyright 2022 Narodowy Instytut Fryderyka Chopina (https://polishscores.org)
!!!YEM: License CC-BY-4.0 (https://creativecommons.org/licenses/by/4.0)
!!!SMS-siglum: PL-Wnifc
!!!SMS-shelfmark: 6854/n
!!!SMS-shelfwork: 005 W
!!!SMS-variant:
!!!SMS-altvar:
!!!NIFC-rismSourceID: 1001159811
!!!NIFC-rismChildID: 1001160011
!!!NIFC-islandoraID: nifc:214685
!!!URL-pdf-islandora: https://repozytorium.nifc.pl/islandora/object/nifc%3A214685/datastream/PDF/view
!!!URL-scan: https://polish.musicsources.pl/pl/lokalizacje/galeria/klocki-introligatorskie/689 @EN{Scan on Polish Music Sources Website} @PL{Skany w portalu Dziedzictwo Muzyki Polskiej w otwartym dostępie}
!!!IIIF:
!!!ONB-nifc: UWAGA: skan 28
!!!AIN: 2 piano
!!!key: F
**kern	**kern	**dynam
*part2	*part1	*
*staff2	*staff1	*
*I"Piano Forte	*I"Piano Forte	*
*I'pf	*I'pf	*
*ICklav	*ICklav	*
*Ipiano	*Ipiano	*
*clefF4	*clefG2	*
*k[b-]	*k[b-]	*
*F:	*F:	*
*M3/4	*M3/4	*
=1	=1	=1
*^	*	*
!	!	!LO:TX:a:t=dolce	!
!	!	!LO:TX:a:t=Tirée d’un \n      Air\nde la Vestale.	!
8F/L	2.F\	4.ff\	p
8A/ 8c	.	.	.
8A/ 8c	.	.	.
8A/ 8c	.	(>32gg\LLL	.
.	.	32ff\	.
.	.	32ee\	.
.	.	32ff\JJJ)	.
8A/ 8c	.	(8..aa^\L	.
8A/J 8c	.	.	.
.	.	32cc\Jkk)	.
=2	=2	=2	=2
8F/L	2F\	[4cc\	.
8A/ 8c	.	.	.
!	!	!LO:TUP:a:problem:klamra łukowa	!
8A/ 8c	.	24cc\LL]	.
.	.	24a\	.
.	.	24b-\	.
8A/J 8c	.	24cc\	.
.	.	24dd\	.
.	.	24ee\JJ	.
(<8A/L	4A\	(8.ff^\L	.
8c/J) 8f	.	.	.
.	.	16ee\Jk)	.
*clefG2	*	*	*
=3	=3	=3	=3
(<8B-/L	4B-\	(8cc#X\	.
8d/) 8g	.	4dd^<\)	.
(<8B-/	4B-\	.	.
8d/) 8g	.	16bb-`\LL	.
.	.	16aa`\JJ	.
(<8B-/	4B-\	(16ccc\LL	.
.	.	16bb-\)	.
8d/J) 8g	.	16dd`\	.
.	.	16gg`\JJ	.
=4	=4	=4	=4
(<8c/L 8f	4c\	8ff`\L	.
8a/)	.	8.ff`^<\J	.
(<8c/ 8f	4c\	.	.
.	.	(16ee\LL	.
8a/J)	.	16gg\	.
.	.	16ff\JJ)	.
8c/L 8e 8g	8c\	8ee`\L	.
*clefF4	*	*	*
16rDD	8ryy	16r	.
16C/Jk 16c	.	16cc`\Jk	.
*v	*v	*	*
=5	=5	=5
*	*	*^
!	!	!LO:DY:t=F	!LO:DY:b=2
!	!	!	!LO:DY:t=F
8.C/L 8.c	8.cc`\L	f	f
16C/K 16c	16cc`\K	.	.
8C/J 8c	8cc`\J	.	.
!	!LO:TX:t=P:problem:przekreślony obiegnik	!	!
!	!	!	!LO:DY:b=2
(8B-/L 8c	8ccsS\L	p	p
8.A/ 8.c	(8.ff\	.	.
16G/Jk) 16B- 16c	16ee\Jk)	.	.
*	*	*v	*v
=6	=6	=6
!	!LO:TX:b:i:t=dolce	!
.	16qcc/	.
*^	*	*
(<8A/L	4F\	(8.aa\L	.
8c/)	.	.	.
.	.	16gg\K	.
.	.	8qgg/	.
(<8A/	4F\	8.ff\	.
8c/)	.	.	.
.	.	16ee\Jk)	.
(<8A/	4F\	(16ff\LL	.
.	.	16ee\)	.
8c/J)	.	16ff`\	.
.	.	16ff#X`\JJ	.
!!LO:LB:g=original	!	!	!
=7	=7	=7	=7
*tremolo	*	*	*
(<8B-/L	2.E\ 2.B-	(16ff#X\LL	>
.	.	16gg\)	.
8c/	.	16aa`\	.
.	.	16gg`\JJ	.
.	.	16qgg/	]
8B-/	.	(8.ffn\L	.
8c/	.	.	.
.	.	16ee\K)	.
8B-/	.	(8.dd\	.
8c/J)	.	.	.
.	.	16cc\Jk)	.
=8	=8	=8	=8
(<8F/L 8A	4F\	(16bn/LL	.
.	.	16cc/)	.
8c/J)	.	16ff`/	.
.	.	16ee`/JJ	.
*clefG2	*	*	*
*Xtremolo	*	*	*
(<8B-/L 8d	4B-\	(8cc#X\L	.
8g/)	.	8dd\J)	.
(<8B-/ 8d	4B-\	(16ccc\LL	>
.	.	16bb-\)	.
8g/J)	.	16aa`\	.
.	.	16gg`\JJ	]]
=9	=9	=9	=9
(<8c/L 8f	4c\	[4ff\	.
8a/)	.	.	.
(<8c/ 8f	4c\	(16ff\LL]	.
.	.	16ee\)	.
8a/J)	.	16gg`\	.
.	.	16ff`\JJ	.
8c/L 8e 8g	8c\	8ee`\L	.
16r	8ryy	16r	.
*clefF4	*	*	*
16C/Jk 16c	.	16cc`\Jk	.
*v	*v	*	*
=10	=10	=10
*	*	*^
!	!	!LO:DY:t=F	!LO:DY:b=2
!	!	!	!LO:DY:t=F
8.C`/L 8.c	8.cc`\L	f	f
16C`/K 16c	16cc`\K	.	.
8C`/J 8c	8cc`\J	.	.
!	!	!	!LO:DY:b=2
(8B-/L 8c	8cc\L	p >	p
!	!LO:TX:b:i:t=dolce	!	!
8A/ 8c	(8.ff\	.	.
8G/J) 8B- 8c	.	.	.
.	16ee\Jk)	]]	.
*	*	*v	*v
=11	=11	=11
.	16qcc/	.
*^	*	*
(<8A/L	4F\	(8.aa\L	.
8c/)	.	.	.
.	.	16gg\K	.
.	.	16qgg/	.
(<8A/	4F\	8.ff\	.
8c/)	.	.	.
.	.	16ee\Jk)	.
(<8A/	4F\	(16ff\LL	.
.	.	16ee\)	.
8c/J)	.	16ff`\	.
.	.	16ff#X`\JJ	.
=12	=12	=12	=12
*tremolo	*	*	*
(<8B-/L	2.E\ 2.B-	(16ff#X\LL	>
.	.	16gg\	.
8c/)	.	16aa`\)	.
.	.	16gg`\JJ	.
!	!	!LO:TUP:a:problem:klamra łukowa	!
(<8B-/	.	12gg\L	]
.	.	12ffn\	.
8c/)	.	.	.
.	.	12ee\J	.
!	!	!LO:TUP:a:problem:klamra łukowa	!
(<8B-/	.	12ee\L	.
.	.	12dd\	.
8c/J)	.	.	.
.	.	12cc\J	.
=13	=13	=13	=13
(<8F/L 8A	4F\	16ff\	.
.	.	(16ffsS\LL	.
8c/J)	.	16gg\	.
.	.	16aa\JJ)	.
(<8G^/L 8c	4G\	(16gg^\KL	.
.	.	8ff\	.
8e/J)	.	.	.
.	.	16dd\Jk)	.
(<8G^/L 8d	4G\	(16gg^\KL	.
.	.	8ff\	.
8f/J)	.	.	.
.	.	16dd\Jk)	.
!!LO:LB:g=original	!	!	!
=14	=14	=14	=14
!	!	!LO:TX:t=P:problem:przekreślony obiegnik	!
8c/L 8e	8G\L 8c	8ccsS/L	.
8d/J 8f	8G\J 8d	16ee`/L	.
.	.	16dd`/JJ	.
8r	8ryy	(>4bn/ 4dd	.
(8f/L	(8G\L 8d 8f	.	.
8c/J) 8e	8c\J)	8cc/)	.
8r	8ryy	8r	.
*v	*v	*	*
=15:|!|:	=15:|!|:	=15:|!|:
!	!	!LO:DY:t=F
*Xtremolo	*	*
16C`/LL 16E	8e`/L 8g 8cc	f
16G/	.	.
16C`/ 16E	(>32c/LL	.
.	32Bn/	.
16G/JJ	32c/	.
.	32B/JJJ)	.
!	!LO:TX:t=P:problem:mixed beam	!
16C`/LL 16E	8c`/L	.
16G/	.	.
16C`/ 16E	16rdd	.
16G/JJ	16cc\K 16ccc	.
16C`/LL 16E	(8.dd-X\ 8.ddd-X	>
16G/	.	.
16C`/ 16E	.	.
16G/JJ	16cc\Jk) 16ccc	]]
=16	=16	=16
*^	*	*
*tremolo	*	*	*
(<16F/LL	2.C\ 2.F	4.cc\ 4.ccc	>
16A-X/	.	.	.
16F/	.	.	.
16A-/	.	.	.
16F/	.	.	.
16A-/	.	.	.
16F/	.	(8aa-X\L	]
16A-/	.	.	.
16F/	.	8.gg\	.
16A-/	.	.	.
16F/	.	.	.
16A-/JJ)	.	16ff\Jk)	.
=17	=17	=17	=17
.	.	16qqeen/LL	.
.	.	16qqff/	.
.	.	16qqgg/JJ	.
*Xtremolo	*	*	*
(<16G/LL	2C\	(8.ff\L	.
16B-/	.	.	.
16G/	.	.	.
16B-/JJ	.	16een\Jk	.
16G/LL	.	4.ee\	.
16B-/	.	.	.
16G/	.	.	.
16B-/JJ)	.	.	.
16G/LL	8C\L	.	.
16B-/	.	.	.
16F/	8C\J	8dd-X\)	.
16A-X/JJ	.	.	.
=18	=18	=18	=18
*tremolo	*	*	*
16En/LL	2.C\ 2.E	(8dd-X\	.
16G/	.	.	.
16E/	.	4cc\)	.
16G/	.	.	.
16E/	.	.	.
16G/	.	.	.
16E/	.	(8dd-X\L	.
16G/	.	.	.
16E/	.	8.cc\	.
16G/	.	.	.
16E/	.	.	.
16G/JJ	.	16b-\Jk)	.
=19	=19	=19	=19
*	*	*	*^
*Xtremolo	*	*	*	*
(<16F/LL	4C\	(8.b-/L	.	.
16A-X/	.	.	.	.
16F/	.	.	.	.
16A-/JJ)	.	16a-X/Jk)	.	.
8E`/ 8G	2ryy	8g`/	.	.
!	!	!	!LO:HP:a	!LO:HP:b=2
8CC`/L 8C	.	16c`/LL	<	<
.	.	16c`/JJ	.	.
8EEn`/ 8En	.	8en`/L	.	.
8GG`/J 8G	.	8g`/J	[[	[[
*v	*v	*	*v	*v
=20	=20	=20
*	*	*^
!	!	!	!LO:DY:b=2
!	!	!LO:DY:t=F	!LO:DY:t=F
16C`/LL 16E	8e`/L 8g 8cc	f	f
16G/	.	.	.
16C`/ 16E	(>32c/LL	.	.
.	32Bn/	.	.
16G/JJ	32c/	.	.
.	32B/JJJ)	.	.
!	!LO:TX:t=P:problem:mixed beam	!	!
*rep	*	*	*
16C`/LL 16E	8c`/L	.	.
16G/	.	.	.
16C`/ 16E	16r	.	.
16G/JJ	16cc\K 16ccc	.	.
*Xrep	*	*	*
*rep	*	*	*
16C`/LL 16E	(8.dd-X\ 8.ddd-X	>	.
16G/	.	.	.
16C`/ 16E	.	.	.
16G/JJ	16cc\Jk) 16ccc	]]	.
*Xrep	*	*	*
*	*	*v	*v
!!LO:LB:g=original	!	!
=21	=21	=21
*^	*	*
*tremolo	*	*	*
(<16F/LL	2.C\ 2.F	4.cc^<\ 4.ccc	.
16A-X/	.	.	.
16F/	.	.	.
16A-/	.	.	.
16F/	.	.	.
16A-/	.	.	.
16F/	.	16bb-X`\LL	p
16A-/	.	16aa-X`\JJ	.
16F/	.	(16gg\LL	.
16A-/	.	16ff\)	.
16F/	.	16een`\	.
16A-X/JJ)	.	16ff`\JJ	.
=22	=22	=22	=22
!	!	!	!LO:DY:t=F
.	.	8qqff/	f
*Xtremolo	*	*	*
16F/LL	2D-X\	4.ff\ 4.fff	.
16A-X/	.	.	.
16F/	.	.	.
16A-/JJ	.	.	.
16F/LL	.	.	.
16A-/	.	.	.
16F/	.	16ff`\LL	.
16A-/JJ	.	16gg`\JJ	.
4Dn^</ 4F 4Bn	4D\	(16.aa-X\LL	.
.	.	32bbn\L	.
.	.	32ccc\	.
.	.	32bb\	.
.	.	32aan\	.
.	.	32bb\JJJ)	.
*v	*v	*	*
=23	=23	=23
2.C:\ 2.E: 2.G: 2.c:	4.een\ 4.gg 4.ccc	.
.	(8c/L 8e	p <
.	8d/ 8f	.
.	8d#X/J) 8f#X	.
*clefG2	*	*
=24	=24	=24
*^	*	*
4.c/	2.c\	(8e/L 8g	.
.	.	8fn/ 8an	.
.	.	8g/J) 8b-	.
!	!	!LO:TX:t=P:problem:przekreślony obiegnik	!
(<8g/L 8b-X	.	8ccsS\L	.
8f/ 8a	.	(8.ff\	[ >
8e/J) 8g	.	.	.
.	.	16ee\Jk)	]]
*clefF4	*	*	*
=25	=25	=25	=25
!	!	!LO:TX:b:t=dolce	!
.	.	16qcc/	.
(<8F/L 8A	4F\	(8.aa\L	.
8c/)	.	.	.
.	.	16gg\K	.
.	.	16qgg/	.
(<8F/ 8A	4F\	8.ff\	.
8c/)	.	.	.
.	.	16ee\Jk)	.
(<8F/ 8A	4F\	(16ff\LL	.
.	.	16ee\)	.
8c/J)	.	16ff`\	.
.	.	16ff#X`\JJ	.
=26	=26	=26	=26
*tremolo	*	*	*
(<8B-/L	2.E\	(16ff#X\LL	>
.	.	16gg\)	.
8c/	.	16aa`\	.
.	.	16gg`\JJ	.
.	.	16qgg/	]
8B-/	.	8.ffn\L	.
8c/	.	.	.
.	.	16ee\K	.
.	.	16qee/	.
8B-/	.	8.dd\	.
8c/J)	.	.	.
.	.	16cc\Jk	.
=27	=27	=27	=27
(<8A/L	4F\	(16bn\LL	.
.	.	16cc\)	.
8c/J)	.	16ff`\	.
.	.	16ee`\JJ	.
*clefG2	*	*	*
*Xtremolo	*	*	*
(8B-/L 8d	2ryy	(8cc#X\L	.
8g/)	.	8dd\J)	.
(8B-/ 8d	.	(16cccn\LL	>
.	.	16bb-\)	.
8g/J)	.	16dd`\	.
.	.	16gg`\JJ	]]
*v	*v	*	*
!!LO:PB:g=original	!	!
=28	=28	=28
(8c/L 8f	8ff`\L	.
8a/)	8.ff`\J	.
(8c/ 8f	.	.
.	(16ee\LL	.
8a/J)	16gg\	.
.	16ff\JJ)	.
8c/ 8e 8g	8ee`\L	.
8r	16r	.
.	16cc`\Jk	.
*clefF4	*	*
=29	=29	=29
*	*^	*^
!	!	!	!	!LO:DY:b=2
!	!	!	!LO:DY:t=F	!LO:DY:t=F
16F`\LL 16A	(16bn\LL	4ryy	f	f
16c\	16cc\)	.	.	.
16F`\ 16A	16ff`\	.	.	.
16c\JJ	16ee`\JJ	.	.	.
16F`\LL 16A	(<8.aa/L	2ee\	.	.
16c\	.	.	.	.
16F`\ 16A	.	.	.	.
16c\JJ	16gg/K	.	.	.
.	16qgg/	.	.	.
*clefG2	*	*	*	*
16A/LL 16c	8.ff/	.	.	.
16f/	.	.	.	.
16A/ 16c	.	.	.	.
16f/JJ	16ee/Jk)	.	.	.
*	*	*	*v	*v
=30	=30	=30	=30
16B-/LL 16d	(16ee\LL	4ryy	.
16f/	16dd\)	.	.
16B-/ 16d	16gg`\	.	.
16f/JJ	16aa`\JJ	.	.
16B-/LL 16d	(<8.ccc/L	2dd\	.
16g/	.	.	.
16B-/ 16d	.	.	.
16g/JJ	16bb-/K	.	.
.	16qbb-/	.	.
16B-/LL 16d	8.aa/	.	.
16g/	.	.	.
16B-/ 16d	.	.	.
16g/JJ	16gg/Jk)	.	.
*	*v	*v	*
=31	=31	=31
.	8qaa/	.
16c/LL 16f	(16gg\LL	.
16a/	16ff\JJ)	.
16c/ 16f	4ff`^<\	.
16a/JJ	.	.
16c/LL 16f	.	.
16a/	.	.
16c/ 16f	16ee`\LL	.
16a/JJ	16ff`\JJ	.
16c#X/LL 16g	(16aa\LL	.
16b-/	16gg\)	.
16c#/ 16g	16ff`\	.
16b-/JJ	16ee`\JJ	.
=32	=32	=32
16d/LL 16f	(16ee\LL	.
16a/	16ff\JJ)	.
16d/ 16f	4ff`^<\	.
16a/JJ	.	.
16d/LL 16f	.	.
16a/	.	.
16d/ 16f	16gg`\LL	.
16a/JJ	16aa`\JJ	.
*clefF4	*	*
!	!	!LO:DY:t=F
16BB-\LL 16D	(16gg\LL	f
16G\	16bb-\)	.
16BB-\ 16D	16aa`\	.
16G\JJ	16gg`\JJ	.
=33	=33	=33
.	16qaa/	.
*	*^	*
16Cn\LL 16F	(16gg\LL	2ryy	.
16A\	16ff\J)	.	.
16C\ 16F	8.ff`\J	.	.
16A\JJ	.	.	.
16C\LL 16F	.	.	.
!	!LO:TX:t=P:problem:przekreślony obiegnik	!	!
16A\	16aasS\LL	.	>
16C\ 16F	16ddd`\	.	.
16A\JJ	16ccc`\JJ	.	.
4C:\ 4E: 4B-:	(<16ccc/LL	4ee\	.
.	16bbn/	.	.
.	16bb-X/	.	.
.	16gg/JJ)	.	]]
*	*v	*v	*
=34	=34	=34
*^	*	*
8A`/L	8C`\L 8F 8A	(16ff\LL	.
.	.	16ee#X\	.
8B-`/J	8C`\J 8G 8B-	16aa\	.
.	.	16gg\JJ)	.
8r	8ryy	(4ee#\ 4gg	.
(8B-/L	(8C\L 8G 8B-	.	.
8A/J)	8F\J) 8A	8ff\)	.
8r	8ryy	8r	.
*v	*v	*	*
!!LO:LB:g=original	!	!
=35:|!	=35:|!	=35:|!
*clefF4	*clefG2	*
*k[b-]	*k[b-]	*
*M3/4	*M3/4	*
*^	*	*^
*	*	*clefF4	*	*
!	!	!LO:TX:a:B:t=TRIO.	!	!
!	!	!LO:TX:a:t=espressivo.	!	!LO:DY:b=2
!	!	!	!LO:DY:t=F	!LO:DY:t=F
!	!	!	!LO:HP:b=2	!
8D/L	2.D\	8DD`/L	f >	f
(<8F/	.	(8FF/J	.	.
8A/)	.	4AA/)	.	.
8F`/ 8A	.	.	.	.
8F`/ 8A	.	4r	]]	.
8F`/J 8A	.	.	.	.
*	*	*	*v	*v
=36	=36	=36	=36
!	!	!	!LO:HP:b=2
8D/L	2.D\	8DD`/L	>
(<8F/	.	(8FF/J	.
8A/)	.	4AA/)	.
8F`/ 8A	.	.	.
*	*	*clefG2	*
8F`/ 8A	.	8r	.
8F`/J 8A	.	8a/	]]
=37	=37	=37	=37
*	*	*	*^
!	!	!	!LO:HP:b=2	!
8D/L	2.D\	4.a\ 4.aa	p >	>
(<8F/	.	.	.	.
8A/)	.	.	.	.
8F`/ 8A	.	16bb-`\LL	.	.
.	.	16aa`\JJ	.	.
8F`/ 8A	.	(16gg\LL	.	]
.	.	16ff\)	.	.
8F`/J 8A	.	16ee`\	.	.
.	.	16dd`\JJ	]]	.
*	*	*	*v	*v
=38	=38	=38	=38
!	!	!	!LO:HP:b=2
.	.	16qqee/	>
8E/L	2.E\	(8.dd\L	.
(<8G/	.	.	.
.	.	16cc#X\Jk)	.
8A/)	.	4cc#\	.
8G`/ 8A	.	.	.
8G`/ 8A	.	8r	.
8G`/J 8A	.	8cc#`\	]]
=39	=39	=39	=39
*	*	*	*^
!	!	!	!LO:HP:b=2	!
8C#X/L	2.C#\	8gg`\	>	.
(<8E/	.	4ee^\ 4gg 4bb-	.	>
8A/)	.	.	.	.
8E/ 8A	.	(8ee\L 8gg 8bb-	.	]
8E/ 8A	.	8ee\) 8aa	.	.
8E/J 8A	.	8ee`\J 8gg	]]	.
*	*	*	*v	*v
=40	=40	=40	=40
!	!	!	!LO:HP:b=2
8D/L	4.D\	(16ee\LL 16gg	>
.	.	16dd\ 16ff	.
(<8F/	.	16gg\) 16bb-	.
.	.	16ff\JJ 16aa	.
8A/J)	.	8ff`\ 8aa	]
8rE	4.ryy	(8a`\L 8ff 8aa	.
4rE	.	8a`\ 8ff 8aa	.
.	.	8a`\J) 8ff 8aa	.
!!LO:LB:g=original	!	!	!
=41	=41	=41	=41
!	!	!	!LO:HP:b=2
N((<4C#X:\ 4E: 4G: 4B-:	(4ryy	(4ee:\ 4gg: 4bb-:	>
8A/)	8D\N) 8F 8A	8dd\) 8ff 8aa	.
8r	4.ryy	(8a`\L 8ff 8aa	]
4r	.	8a`\ 8ff 8aa	.
.	.	8a`\J) 8ff 8aa	.
=42	=42	=42	=42
!	!	!	!LO:HP:b=2
N(<(4C#X:\ 4E: 4G: 4B-:	(4ryy	(4ee:\ 4gg: 4bb-:	>
8A/)	8D\N) 8F 8A	8dd\) 8ff 8aa	.
8r	4.ryy	(8a`\L 8ff 8aa	]
4r	.	8a`\ 8ff 8aa	.
.	.	8a`\J) 8ff 8aa	.
*v	*v	*	*
=43	=43	=43
*	*^	*
8BB-`\L 8B-	(<16aa/LL	16dd^\	.
.	32gg/JJk)	16r	.
.	32r	.	.
8AA`\ 8A	(<16gg/LL	16cc^\	.
.	32ff/JJk)	16r	.
.	32r	.	.
8GG`\ 8G	(<16ff/LL	16b-^\	.
.	32ee/JJk)	16r	.
.	32r	.	.
8FF`\ 8F	(<16ee/LL	16a^\	.
.	32dd/JJk)	16r	.
.	32r	.	.
8EE`\ 8E	(<16dd/LL	16g^\	.
.	32cc#X/JJk)	16r	.
.	32r	.	.
8DD`\J 8D	(<16cc#/LL	16f^\	.
.	32dd/JJk)	16r	.
.	32r	.	.
*	*v	*v	*
=44	=44	=44
*^	*	*
!	!	!LO:TX:t=P:problem:mixed beam	!
4AA\ 4C#X 4E 4A	4ryy	8.cc#X`\L 8.ee 8.aa	.
.	.	16c#X/Jk 16e 16a	.
(<8AA/L	2AA\	8c#/ 8e 8a	.
8E/ 8G	.	8r	.
8D/ 8F	.	4r	.
8C#X/J) 8E	.	.	.
*	*	*clefF4	*
!	!	!LO:TX:t=P:problem: brak zmiany klucza w źródle	!
=45	=45	=45	=45
*	*	*	*^
!	!	!LO:TX:a:t=espressivo.	!LO:DY:t=F	!LO:DY:t=F
!	!	!	!LO:HP:b=2	!LO:DY:b=2
8D/L	2.D\	8DD`/L	f >	f
(<8F/	.	(8FF/J	.	.
8A/)	.	4AA/)	.	.
8F`</ 8A	.	.	.	.
8F`</ 8A	.	4r	]]	.
8F`</J 8A	.	.	.	.
=46	=46	=46	=46	=46
!	!	!	!	!LO:DY:t=F
!	!	!	!LO:HP:b=2	!LO:DY:b=2
8D/L	2.D\	8DD`/L	>	f
(<8F/	.	(8FF/J	.	.
8A/)	.	4AA/)	.	.
8F`</ 8A	.	.	.	.
*	*	*clefG2	*	*
8F`</ 8A	.	8r	.	.
8F`</J 8A	.	8a/	]]	.
=47	=47	=47	=47	=47
!	!	!	!LO:HP:b=2	!
8D/L	2.D\	4.a\ 4.aa	p >	>
(<8F/	.	.	.	.
8A/)	.	.	.	]
8F`</ 8A	.	16bb-`\LL	.	.
.	.	16aa`\JJ	.	.
8F`</ 8A	.	(16gg\LL	.	.
.	.	16ff\)	.	.
8F`</J 8A	.	16ee`\	.	.
.	.	16dd`\JJ	]]	.
*	*	*	*v	*v
=48	=48	=48	=48
!	!	!	!LO:HP:b=2
.	.	16qqee/	>
8E/L	2.E\	(8.dd\L	.
(<8G/	.	.	.
.	.	16cc#X\Jk)	.
8A/)	.	4cc#\	.
8G`</ 8A	.	.	.
8G`</ 8A	.	8r	.
!	!	!	!
8G`</J 8A	.	8cc#`\	]]
=49	=49	=49	=49
*	*	*	*^
!	!	!	!	!LO:HP:b=2
8C#X/L	2.C#\	8gg`\	.	>
(<8E/	.	4ee^\ 4gg 4bb-	>	.
8A/)	.	.	.	.
8E`</ 8A	.	(8ee\L 8gg 8bb-	]	.
8E`</ 8A	.	8ee\) 8aa	.	.
8E`</J 8A	.	8ee`\J 8gg	.	]]
*	*	*	*v	*v
=50	=50	=50	=50
!	!	!	!LO:HP:b=2
8D/L	4.D\	(16ee\LL 16gg	>
.	.	16dd\ 16ff	.
(<8F/	.	16gg\) 16bb-	.
.	.	16ff`\JJ 16aa	]
8A/J)	.	8ff`\ 8aa	.
8r	4.ryy	(8a`\L 8ff 8aa	.
4r	.	8a`\ 8ff 8aa	.
.	.	8a`\J) 8ff 8aa	.
*v	*v	*	*
!!LO:LB:g=original	!	!
=51	=51	=51
*	*	*^
!	!	!LO:HP:b=2	!
((4C#X:\ 4E: 4G: 4B-:	(4ee:\ 4gg: 4bb-:	>	>
8D\)) 8F 8A	8dd\) 8ff 8aa	.	.
8r	(8a`\L 8ff 8aa	]	]
4r	8a`\ 8ff 8aa	.	.
.	8a`\J) 8ff 8aa	.	.
=52	=52	=52	=52
!	!	!LO:HP:b=2	!
((4C#X:\ 4E: 4G: 4B-:	(4ee:\ 4gg: 4bb-:	>	>
8D\)) 8F 8A	8dd\) 8ff 8aa	.	.
8r	(8a`\L 8ff 8aa	]	]
4r	8a`\ 8ff 8aa	.	.
.	8a`\J) 8ff 8aa	.	.
*	*	*v	*v
=53	=53	=53
!	!	!LO:DY:b=2
!	!	!LO:DY:t=F
16BB-X`/LL 16D	4.dd\ 4.ddd	f
16G#X/	.	.
16BB-`/ 16D	.	.
16G#/JJ	.	.
16BB-`/LL 16D	.	.
16G#/	.	.
16BB-`/ 16D	16cccn`\LL	.
16G#/JJ	16bb-X`\JJ	.
.	8qccc/	.
16BB-`/LL 16D	(16bb-\LL	.
16G#/	16aa\)	.
.	8qbb-/	.
16BB-`/ 16D	(16aa\	.
16G#/JJ	16gg#X\JJ)	.
=54	=54	=54
*^	*	*
4.A/	4.AA\ 4.C#X 4.E 4.A	(4gg#X\	>
.	.	8aa\L)	]
8r	4.ryy	16a`\L	.
.	.	16a`\JJ	.
4r	.	8a`/L	.
!	!	!LO:TX:b:B:t=Polonaise Da Capo	!
.	.	8a`/J	.
*v	*v	*	*
==	==	==
*-	*-	*-
!!!system-decoration: {(s1,s2)}
!!!RDF**kern: > = above
!!!RDF**kern: < = below
!!!RDF**kern: N = linked
!!!ENC: Filip Voros
!!!END: 2022-08-17
!!!ENC: Natalia Wrzos
!!!END: 2022-09-17
